!!!!SEGMENT: pl-sa--90-a-ii-30--005_brixi-frantisek-xaver--missa-in-d-agnus-dei.krn
!!!cenid: 17xx:600
!!!COM: Brixi, František Xaver
!!!COM-rismid: pe30000491
!!!CDT: 1732/01/02-1771/10/14
!!!CNT: Czech
!!!OPR: Missa in D
!!!OTL: Agnus Dei
!!!OMV: 005
!!!PDT:
!!!AGN: Sacred; Mass
!!!SMS-siglum: PL-SA
!!!SMS-shelfmark: 90/A II 30
!!!SMS-shelfwork: 001-005 M
!!!SMS-variant: Cornu 1mo: PL-SA 90/A II 30: 49 : Violino 1mo: PL-SA 90/A II 30: 26 : Violin 2do.: PL-SA 90/A II 30: 40
!!!SMS-altvar: Cornu 1mo: PL-SA 90/A II 30: 51 : Violino 1mo: PL-SA 90/A II 30: 35 : Violin 2do.: PL-SA 90/A II 30: 47
!!!NIFC-rismid: 1001072256
!!!URL-scan: http://bc.bdsandomierz.pl/dlibra/publication/1375/edition/1343/content
!!!ONB-nifc: UWAGA: części Mszy: Kyrie, Gloria, Credo, Sanctus, Agnus Dei
**kern	**fba	**dynam	**kern	**dynam	**kern	**dynam	**kern	**text	**kern	**text	**kern	**text	**kern	**text	**kern	**kern
*part9	*part9	*part9	*part8	*part8	*part7	*part7	*part6	*part6	*part5	*part5	*part4	*part4	*part3	*part3	*part2	*part1
*staff9	*staff9	*	*staff8	*	*staff7	*	*staff6	*staff6	*staff5	*staff5	*staff4	*staff4	*staff3	*staff3	*staff2	*staff1
*Iempty	*	*	*Ivioln	*	*Ivioln	*	*Iempty	*	*Itenor	*	*Ialto	*	*Ivox	*	*Iempty	*Iempty
*I"Fundamento	*	*	*I"Violin 2do.	*	*I"Violino 1mo	*	*I"Baſso	*	*I"Tenore	*	*I"Alto	*	*I"Canto	*	*I"Cornu 2do. In D.	*I"Cornu 1mo In D.
*I'fund.	*	*	*I'vl 2	*	*I'vl 1	*	*I'B	*	*I'T	*	*I'A	*	*I'C	*	*I'cor 2	*I'cor 1
*clefF4	*	*	*clefG2	*	*clefG2	*	*clefF4	*	*clefC4	*	*clefC3	*	*clefC1	*	*clefG2	*clefG2
*	*	*	*	*	*	*	*	*	*	*	*	*	*	*	*ITrd6c10	*ITrd6c10
*k[f#c#]	*	*	*k[f#c#]	*	*k[f#c#]	*	*k[f#c#]	*	*k[f#c#]	*	*k[f#c#]	*	*k[f#c#]	*	*k[f#c#]	*k[f#c#]
*D:	*	*	*D:	*	*D:	*	*D:	*	*D:	*	*D:	*	*D:	*	*	*
*M2/2	*	*	*M2/2	*	*M2/2	*	*M2/2	*	*M2/2	*	*M2/2	*	*M2/2	*	*M2/2	*M2/2
*met(c|)	*	*	*met(c|)	*	*met(c|)	*	*met(c|)	*	*met(c|)	*	*met(c|)	*	*met(c|)	*	*met(c|)	*met(c|)
*	*	*	*	*below	*	*below	*	*	*	*	*	*	*	*	*	*
=1	=1	=1	=1	=1	=1	=1	=1	=1	=1	=1	=1	=1	=1	=1	=1	=1
!	!	!	!LO:TX:rj:b:t=Agnus	!	!LO:SIC:o:s:=:v:p=piano&colon;global	!	!LO:TX:rj:b:t=Agnus.	!	!LO:TX:rj:b:t=Agnus	!	!	!	!	!	!LO:TX:a:t=1	!LO:TX:rj:b:t=Agnus Dei
!LO:TX:b:t=Agnus	!	!	!LO:TX:rj:a:t=Adazio	!	!LO:TX:b:t=Agnus	!	!LO:TX:rj:a:t=adag	!	!LO:TX:rj:a:t=Ada&colon;	!	!LO:TX:rj:a:i:t=Solo	!	!LO:TX:rj:b:t=Agnus	!	!LO:TX:rj:b:t=Agnus	!LO:TX:a:t=Adagio
4D\	.	.	8f#/L	.	8a/L	p	1r	.	1r	.	8a\	A-	1r	.	1r	1r
.	.	.	(16d/L	.	(16f#/L	.	.	.	.	.	(16f#\LL	-gnus	.	.	.	.
.	.	.	16e/JJ)	.	16g/JJ)	.	.	.	.	.	16g\JJ)	.	.	.	.	.
!	!	!	!	!	!LO:TX:a:t=P:problem:mixed beam	!	!	!	!	!	!	!	!	!	!	!
8D\L	.	.	16f#/LL	.	(16a/LL	.	.	.	.	.	8a\	De-	.	.	.	.
!	!	!	!	!LO:DY:t=pia	!	!	!	!	!	!	!	!	!	!	!	!
.	.	.	16a/	p	16ff#\)	.	.	.	.	.	.	.	.	.	.	.
8D\J	.	.	16a/	.	16ff#\	.	.	.	.	.	16a\	-i	.	.	.	.
.	.	.	16f#/JJ	.	16a/JJ	.	.	.	.	.	16a\	qui	.	.	.	.
4AA/	7_	.	8e/L	.	8g/L	.	.	.	.	.	8g\	tol-	.	.	.	.
.	.	.	(16c#/L	.	16e/L	.	.	.	.	.	8g\	-lis	.	.	.	.
.	.	.	16d/JJ)	.	16f#/JJ	.	.	.	.	.	.	.	.	.	.	.
!	!	!	!	!	!LO:TX:a:t=P:problem:mixed beam	!	!	!	!	!	!	!	!	!	!	!
8AA/L	.	.	16e/LL	.	(16g/LL	.	.	.	.	.	4r	.	.	.	.	.
.	.	.	16g/	.	16ee\)	.	.	.	.	.	.	.	.	.	.	.
8AA/J	.	.	16g/	.	16ee\	.	.	.	.	.	.	.	.	.	.	.
.	x	.	16e/JJ	.	16g/JJ	.	.	.	.	.	.	.	.	.	.	.
=2	=2	=2	=2	=2	=2	=2	=2	=2	=2	=2	=2	=2	=2	=2	=2	=2
!LO:TX:a:t=Tutt.	!	!	!	!	!	!	!	!	!	!	!	!	!	!	!	!
4A\	.	.	16cc#\LL	.	(16ee\LL	.	4A\	Pec-	4e\	pec-	4a\	pec-	4gg\	pec-	4A/	4e\
!	!	!	!LO:SIC:o:s:=:v:f=for.	!	!LO:SIC:o:s:=:v:f=for.&colon;global	!	!	!	!	!	!	!	!	!	!	!
.	.	.	16ee\	f	16gg\)	f	.	.	.	.	.	.	.	.	.	.
.	.	.	16ee\	.	16gg\	.	.	.	.	.	.	.	.	.	.	.
.	.	.	16cc#\JJ	.	16ee\JJ	.	.	.	.	.	.	.	.	.	.	.
!	!	!	!LO:TX:a:t=P:problem:mixed beam	!	!	!	!	!	!	!	!	!	!	!	!	!
8A\L	.	.	16cc#\LL	.	16ee\LL	.	8A\	-ca-	8e\	-ca-	8a\	-ca-	8gg\	-ca-	4A/	4e\
.	.	.	16e/	.	[16cc#\	.	.	.	.	.	.	.	.	.	.	.
8A\J	.	.	16e/	.	16cc#\]	.	8A\	-ta	8e\	-ta	8a\	-ta	8gg\	-ta	.	.
.	.	.	16A/JJ	.	16g\JJ	.	.	.	.	.	.	.	.	.	.	.
!	!	!	!	!	!	!	!	!	!	!	!	!	!LO:LB:g=original	!	!	!
!	!	!	!LO:TX:a:t=P:problem:mixed beam	!	!	!	!	!	!	!	!	!	!	!	!	!
8A\L	.	.	8e/L	.	8g/L	.	8A\	mun-	8e\	mun-	8a\	Mun-	8gg\	mun-	4r	2r
8D\J	.	.	8d/	.	8f#/J	.	8D\	-di	8d\	-di	8a\	-di	8ff#\	-di	.	.
4r	.	.	8cc#\	.	16ee\LL	.	4r	.	4r	.	4r	.	4r	.	4r	.
.	.	.	.	.	(16cc#\	.	.	.	.	.	.	.	.	.	.	.
.	.	.	8e/J	.	16a\)	.	.	.	.	.	.	.	.	.	.	.
.	.	.	.	.	16g\JJ	.	.	.	.	.	.	.	.	.	.	.
=3	=3	=3	=3	=3	=3	=3	=3	=3	=3	=3	=3	=3	=3	=3	=3	=3
!	!	!	!	!	!LO:TX:a:t=P:problem:mixed beam	!	!	!	!	!	!	!	!	!	!	!
4A\	5 3	.	16e/LL	.	(16g/LL	.	8A\	mi-	8c#\	Mi-	8g\	Mi-	8ee\	mi-	4A/	4e\
.	.	.	16g/	.	16ee\)	.	.	.	.	.	.	.	.	.	.	.
.	.	.	16g/	.	16ee\	.	8A\	-se-	8c#\	-se-	8g\	-se-	8ee\	-se-	.	.
.	.	.	16e/JJ	.	16g/JJ	.	.	.	.	.	.	.	.	.	.	.
!	!	!	!	!	!LO:TX:a:t=P:problem:mixed beam	!	!	!	!	!	!	!	!	!	!	!
8A\L	.	.	16e/LL	.	(16g/LL	.	8A\	-re-	8c#\	-re-	8g\	-re-	8ee\	-re-	4A/	4e\
.	.	.	16g/	.	16ee\)	.	.	.	.	.	.	.	.	.	.	.
8A\J	.	.	16g/	.	16ee\	.	8A\	-re	8c#\	-re	8g\	-re	8ee\	-re	.	.
.	.	.	16e/JJ	.	16g/JJ	.	.	.	.	.	.	.	.	.	.	.
8A\L	.	.	16e/LL	.	(16g/LL	.	16A\LL	no-	8c#\	no-	(16g\LL	no-	8ee\	no-	(16e\LL	(16g\LL
.	.	.	16d/JJ	.	16f#/JJ)	.	16E\JJ	.	.	.	16f#\JJ)	.	.	.	16d\J)	16f#\J)
8D\J	.	.	8ff#/ 8a/ 8d/	.	8ff#/ 8a/ 8d/	.	8D\	-bis	8A\	-bis	8f#\	-bis	8dd\	-bis	8d\J	8f#\J
4D\	.	.	4r	.	4r	.	4r	.	4r	.	4r	.	4r	.	4r	4r
!	!	!	!	!	!	!	!	!	!	!	!LO:LB:g=original	!	!	!	!	!
=4	=4	=4	=4	=4	=4	=4	=4	=4	=4	=4	=4	=4	=4	=4	=4	=4
4D\	.	.	16dd\LL	.	16ff#\LL	.	4d\	A-	4d\	A-	4a\	A-	4ff#\	A-	4d\	4f#\
.	.	.	16ff#\	.	[16aa\	.	.	.	.	.	.	.	.	.	.	.
.	.	.	16ff#\	.	16aa\]	.	.	.	.	.	.	.	.	.	.	.
.	.	.	16dd\JJ	.	16ff#\JJ	.	.	.	.	.	.	.	.	.	.	.
4D\	.	.	16dd\LL	.	16ff#\LL	.	4d\	-gnus	4d\	-gnus	4a\	-gnus	4ff#\	-gnus	4d\	4f#\
.	.	.	16ff#\	.	[16aa\	.	.	.	.	.	.	.	.	.	.	.
.	.	.	16ff#\	.	16aa\]	.	.	.	.	.	.	.	.	.	.	.
.	.	.	16dd\JJ	.	16ff#\JJ	.	.	.	.	.	.	.	.	.	.	.
!	!	!	!	!	!LO:LB:g=original	!	!	!	!	!	!	!	!	!	!	!
4A\	.	.	16cc#\LL	.	16ee\LL	.	4A\	de-	4d\	De-	4a\	De-	4ee\	De-	4A/	4e\
.	.	.	16a\JJ	.	16a\JJ	.	.	.	.	.	.	.	.	.	.	.
!	!	!	!LO:TUP:a:problem:klamra łukowa i kropka zamiast numeru	!	!LO:TUP:a:problem:klamra łukowa i kropka zamiast numeru	!	!	!	!	!	!	!	!	!	!	!
.	.	.	24ee\LL	.	24gg\LL	.	.	.	.	.	.	.	.	.	.	.
.	.	.	24dd\	.	24ff#\	.	.	.	.	.	.	.	.	.	.	.
.	.	.	24cc#\JJ	.	24ee\JJ	.	.	.	.	.	.	.	.	.	.	.
8d\L	.	.	8dd\L	.	8ff#\L	.	8d\	-i	8d\	-i	8a\	-i	8ff#\	-i	8d\L	8f#\L
8c#\J	6 3	.	8gg\J	.	8bb\J	.	8c#\	qui	8e\	qui	8b\	qui	8gg\	qui	8e\J	8g\J
!	!	!	!	!	!	!	!LO:LB:g=original	!	!	!	!	!	!	!	!	!
=5	=5	=5	=5	=5	=5	=5	=5	=5	=5	=5	=5	=5	=5	=5	=5	=5
8c#\L	x 5	.	8gg\L	.	8bb\L	.	8c#\	tol-	8e\	tol-	8a\	tol-	8gg\	tol-	8e\L	8g\L
8d\J	x 6	.	8ff#\J	.	8aa\J	.	8e\	-lis	8d\	-lis	8a\	-lis	8ff#\	-lis	8d\J	8f#\J
!	!	!	!LO:TX:a:t=P:problem:mixed beam	!	!	!	!	!	!	!	!	!	!	!	!	!
4r	.	.	16ff#\LL	.	16aa\LL	.	4r	.	4r	.	4r	.	4r	.	4r	4r
.	.	.	16dd\	.	[16ff#\	.	.	.	.	.	.	.	.	.	.	.
.	.	.	16dd\	.	16ff#\]	.	.	.	.	.	.	.	.	.	.	.
.	.	.	16f#/JJ	.	16dd\JJ	.	.	.	.	.	.	.	.	.	.	.
*tremolo	*	*	*	*	*	*	*	*	*	*	*	*	*	*	*	*
!	!	!	!LO:LB:g=original	!	!	!	!	!	!	!	!	!	!	!	!	!
!	!	!LO:DY:t=pia	!LO:SIC:o:s:=:v:e lub glub g	!	!LO:TX:a:t=P:problem:mixed beam	!	!	!	!	!	!	!	!	!	!	!
8AA/L	.	p	8f#/L	.	16ee'\LL	.	8r	.	8r	.	8r	.	8r	.	8r	8r
.	.	.	.	.	16g'/	.	.	.	.	.	.	.	.	.	.	.
8AA/	.	.	8e/	.	16g'/	.	8A\	pec-	8A\	pec-	8e\	pec-	8g\	pec-	8e\L	8g\L
.	.	.	.	.	16g'/JJ	.	.	.	.	.	.	.	.	.	.	.
!	!	!	!	!	!LO:TX:a:t=P:problem:mixed beam	!	!	!	!	!	!	!	!	!	!	!
8AA/	.	.	8e/	.	16ee'\LL	.	8A\	-ca-	8A\	-ca-	8e\	-ca-	8g\	-ca-	8e\	8g\
.	.	.	.	.	16g'/	.	.	.	.	.	.	.	.	.	.	.
!	!	!	!LO:SIC:o:s:=:v:e lub glub c#	!	!	!	!	!	!	!	!	!	!	!	!	!
8AA/J	.	.	8d/J	.	16g'/	.	8A\	-ta	8A\	-ta	8e\	-ta	8g\	-ta	8e\J	8g\J
.	.	.	.	.	16g'/JJ	.	.	.	.	.	.	.	.	.	.	.
*Xtremolo	*	*	*	*	*	*	*	*	*	*	*	*	*	*	*	*
!	!	!	!	!	!	!	!	!	!LO:LB:g=original	!	!	!	!	!	!	!
=6	=6	=6	=6	=6	=6	=6	=6	=6	=6	=6	=6	=6	=6	=6	=6	=6
!	!	!	!LO:TX:a:t=P:problem:mixed beam	!	!LO:TX:a:t=P:problem:mixed beam	!	!	!	!	!	!	!	!	!	!	!
4AA/	.	.	8e/L	.	8g/L	.	8A\	mun-	8A\	Mun-	8e\	mun-	8g\	mun-	8e\L	8g\L
!	!	!	!LO:SIC:s:=:v:8d&colon;t=lub dd	!	!	!	!	!	!	!	!	!	!	!	!	!
.	.	.	8ee\	.	8f#/	.	8D\	-di	8A\	-di	8d\	-di	8f#\	-di	8d\J	8f#\J
!LO:LB:g=original	!	!	!LO:SIC:s:=:v:8dd	!	!	!	!	!	!	!	!	!	!	!	!	!
8D\L	.	.	8ee\	.	8ff#\	.	8D\	mi-	8d\	mi-	8a\	mi-	8ff#\	mi-	4r	4r
8D\J	.	.	8dd\J	.	8ff#\J	.	8D\	-se-	8d\	-se-	8a\	-se-	8ff#\	-ſe-	.	.
!	!	!	!	!	!	!	!	!	!	!	!	!	!	!	!	!LO:LB:g=original
!LO:TX:a:t=P:problem:mixed beam	!	!	!	!	!	!	!	!	!	!	!	!	!	!	!	!
8A\L	.	.	16cc#\LL	.	16ee\LL	.	8A\	-re-	8c#\	-re-	8a\	-re-	8ee\	-re-	2r	2r
.	.	.	16ff#\	.	16aa\	.	.	.	.	.	.	.	.	.	.	.
!LO:SIC:s:=:v:8D	!	!	!	!	!	!	!LO:SIC:s:=:v:8D	!	!	!	!	!	!	!	!	!
8C#/	.	.	16dd\	.	16ff#\	.	8C#\	-re	8B\	-re	8b\	-re	8dd\	-re	.	.
.	.	.	16b\JJ	.	16dd\JJ	.	.	.	.	.	.	.	.	.	.	.
!LO:SIC:s:=:v:8E	!	!	!	!	!	!	!LO:SIC:s:=:v:8E	!	!	!	!	!	!	!	!	!
8D/	.	.	8a\L	.	8cc#\L	.	8D\	no-	(8e\	no-	(8a\L	no-	(8cc#\L	no-	.	.
!	!	!	!	!	!	!	!LO:SIC:s:=:v:8E	!	!	!	!	!	!	!	!	!
8E/J	.	.	8g#X\J	.	8b\J	.	8D\	-bis	8e\)	.	8g#X\J)	.	8b\J)	.	.	.
=7	=7	=7	=7	=7	=7	=7	=7	=7	=7	=7	=7	=7	=7	=7	=7	=7
4AA/	.	.	4a\	.	4a/	.	4A\	mi-	4e\	-bis	4a\	-bis	4a\	-bis	4A/	4A/
!LO:SIC:s:=:v:8A	!	!	!	!	!LO:TX:a:t=P:problem:mixed beam	!	!	!	!	!	!	!	!	!	!	!
8G\L	.	.	16e/LL	.	16g/LL	.	8A\	-se-	8c#\	mi-	8a\	mi-	8ee\	mi-	8A/L	8e\L
.	.	.	16g/	.	16ee\	.	.	.	.	.	.	.	.	.	.	.
!LO:SIC:s:=:v:8A	!	!	!	!	!	!	!	!	!	!	!	!	!	!	!	!
8G\J	6	.	16g/	.	16ee\	.	8A\	-re-	8c#\	-se-	8a\	-ſe-	8ee\	-se-	8A/J	8e\J
.	.	.	16e/JJ	.	16g/JJ	.	.	.	.	.	.	.	.	.	.	.
!	!	!	!	!	!	!	!	!	!	!	!	!	!	!	!LO:LB:g=original	!
!LO:TX:a:t=P:problem:mixed beam	!	!	!	!	!	!	!	!	!LO:SIC:s:=:v:8d	!	!	!	!	!	!	!
8D\L	.	.	16d/LL	.	16f#/LL	.	8D\	-re	8c#\	-re-	8a\	-re-	(8ff#\L	-re-	8d\L	8f#\L
.	.	.	16f#/J	.	16dd/JJ	.	.	.	.	.	.	.	.	.	.	.
!	!	!	!	!	!LO:TUP:a:problem:klamra łukowa i kropka zamiast numeru	!	!	!	!	!	!LO:SIC:s:t:=:v:lub g	!	!	!	!	!
8G\	.	.	8g/J	.	24b\LL	.	8G\	no-	8c#\	-re	8a\	.	8ee\J)	.	8e\	8g\
.	.	.	.	.	24gg\	.	.	.	.	.	.	.	.	.	.	.
.	.	.	.	.	24ee\JJ	.	.	.	.	.	.	.	.	.	.	.
!	!	!	!	!	!	!	!	!	!	!	!	!	!LO:LB:g=original	!	!	!
!	!	!	!	!	!	!	!LO:TX:a:t=P:problem:mixed beam	!	!	!	!	!	!	!	!	!
8A\	.	.	8f#/L	.	8dd\L	.	(8A\L	-bis	(8d\L	no-	4a\	-re	8ff#\	-re	8d\	8f#\
!	!	!	!LO:SIC:s:=:v:e	!	!	!	!	!	!	!	!	!	!	!	!	!
8AA/J	.	.	8d/J	.	8cc#\J	.	8AA/J)	.	8e\J)	.	.	.	8ee\	no-	8A\J	8e\J
=8	=8	=8	=8	=8	=8	=8	=8	=8	=8	=8	=8	=8	=8	=8	=8	=8
!LO:TX:a:t=Solo	!	!	!	!	!LO:TX:a:t=P:problem:mixed beam	!	!	!	!	!	!	!	!	!	!	!
4D\	.	.	8a/L	.	8dd\L	.	8D\	.	4d\	-bis	8a\	-bis	8dd\	-bis	4F#/	4d\
.	.	.	8d/J	.	8f#/J	.	8r	.	.	.	8r	.	8r	.	.	.
8D\L	.	.	16f#/LL	.	16a\LL	p	4r	.	4r	.	8a\	A-	4r	.	4r	4r
.	.	.	16a/	.	[16ff#\	.	.	.	.	.	.	.	.	.	.	.
8D\J	.	.	16a/	.	16ff#\]	.	.	.	.	.	8a\	-gnus	.	.	.	.
.	.	.	16f#/JJ	.	16a\JJ	.	.	.	.	.	.	.	.	.	.	.
*2\right	*	*	*	*	*	*	*	*	*	*	*	*	*	*	*	*
*tremolo	*	*	*	*	*	*	*	*	*	*	*	*	*	*	*	*
8A\L	.	.	16e/LL	.	(16g/LL	.	2r	.	2r	.	(16g\LL	De-	2r	.	2r	2r
.	.	.	16d/J	.	16f#/J)	.	.	.	.	.	16f#\JJ	.	.	.	.	.
8A\	.	.	8e/J	.	8g/J	.	.	.	.	.	8g\)	-i	.	.	.	.
!	!	!	!	!	!LO:LB:g=original	!	!	!	!	!	!	!	!	!	!	!
8A\	.	.	16e/LL	.	16g\LL	.	.	.	.	.	8r	.	.	.	.	.
.	.	.	16g/	.	[16ee\	.	.	.	.	.	.	.	.	.	.	.
8A\J	.	.	16g/	.	16ee\]	.	.	.	.	.	8g\	qui	.	.	.	.
.	.	.	16e/JJ	.	16g\JJ	.	.	.	.	.	.	.	.	.	.	.
=9	=9	=9	=9	=9	=9	=9	=9	=9	=9	=9	=9	=9	=9	=9	=9	=9
8D\L	.	.	16d/LL	.	(16f#/LL	.	2r	.	2r	.	(16f#\LL	tol-	2r	.	2r	2r
.	.	.	16c#/J	.	16e/J)	.	.	.	.	.	16e\JJ)	.	.	.	.	.
8D\	.	.	8d/J	.	8f#/J	.	.	.	.	.	16f#\	-lis	.	.	.	.
.	.	.	.	.	.	.	.	.	.	.	16f#\	pec-	.	.	.	.
8D\	.	.	16d/LL	.	16f#/LL	.	.	.	.	.	8f#\	-ca-	.	.	.	.
.	.	.	16f#/	.	16dd/	.	.	.	.	.	.	.	.	.	.	.
8D\J	.	.	16f#/	.	16dd/	.	.	.	.	.	8f#\	-ta	.	.	.	.
.	.	.	16d/JJ	.	16f#/JJ	.	.	.	.	.	.	.	.	.	.	.
*Xtremolo	*	*	*	*	*	*	*	*	*	*	*	*	*	*	*	*
8D\L	.	.	8d/L	.	8f#/L	.	4r	.	4r	.	8f#\	mun-	4r	.	4r	4r
8A\	.	.	8c#/J	.	8e/J	.	.	.	.	.	8e\	-di	.	.	.	.
!	!	!	!LO:TX:a:t=P:problem:mixed beam	!	!	!	!	!	!	!	!	!	!	!	!	!
8A\	.	.	16ee\LL	.	16gg\LL	f	8A\	mi-	8e\	Mi-	8cc#\	Mi-	8gg\	Mi-	8e\L	8g\L
.	.	.	16g/	.	16ee\	.	.	.	.	.	.	.	.	.	.	.
8A\J	.	.	16g/	.	(16ee\	.	8A\	-se-	8e\	-se-	8cc#\	-se-	8gg\	-se-	8e\J	8g\J
.	.	.	16e/JJ	.	16cc#\JJ)	.	.	.	.	.	.	.	.	.	.	.
!	!	!	!	!	!	!	!LO:LB:g=original	!	!	!	!	!	!	!	!	!
=10	=10	=10	=10	=10	=10	=10	=10	=10	=10	=10	=10	=10	=10	=10	=10	=10
4A\	.	.	16a\LL	.	16a\LL	.	4A\	-re-	4e\	-re-	4cc#\	-re-	4gg\	-re-	4e\	4g\
.	.	.	[16ee\	.	[16gg\	.	.	.	.	.	.	.	.	.	.	.
.	.	.	16ee\]	.	16gg\]	.	.	.	.	.	.	.	.	.	.	.
.	.	.	16cc#\JJ	.	16ee\JJ	.	.	.	.	.	.	.	.	.	.	.
!	!	!	!	!	!	!	!LO:TX:b:t=Dona ut Kirie	!	!	!	!	!	!	!	!	!
8A\L	.	.	(16cc#/LL	.	16ee\LL	.	4A\	-re	4e\	-re	4cc#\	-re	4gg\	-re	4e\	4g\
.	.	.	16g/)	.	[16cc#\	.	.	.	.	.	.	.	.	.	.	.
8A\	.	.	16g/	.	16cc#\]	.	.	.	.	.	.	.	.	.	.	.
.	.	.	16e/JJ	.	16g\JJ	.	.	.	.	.	.	.	.	.	.	.
8A\	.	.	16a\LL	.	16a\LL	.	8A\	mi-	8e\	Mi-	8cc#\	Mi-	8gg\	Mi-	4e\	4g\
.	.	.	[16ee\	.	[16gg\	.	.	.	.	.	.	.	.	.	.	.
8A\J	.	.	16ee\]	.	16gg\]	.	8A\	-se-	8e\	-se-	8cc#\	-se-	8gg\	-se-	.	.
.	.	.	16cc#\JJ	.	16ee\JJ	.	.	.	.	.	.	.	.	.	.	.
!	!	!	!LO:LB:g=original	!	!	!	!	!	!	!	!	!	!	!	!	!
4A\	.	.	16cc#/LL	.	16ee\LL	.	8A\	-re-	8e\	-re-	8cc#\	-re-	8gg\	-re-	4e\	4g\
.	.	.	16g/	.	[16cc#\	.	.	.	.	.	.	.	.	.	.	.
.	.	.	16g/	.	16cc#\]	.	8A\	-re	8e\	-re	8cc#\	-re	8gg\	-re	.	.
.	.	.	16e/JJ	.	16g\JJ	.	.	.	.	.	.	.	.	.	.	.
!	!	!	!	!	!	!	!	!	!LO:LB:g=original	!	!	!	!	!	!	!
=11	=11	=11	=11	=11	=11	=11	=11	=11	=11	=11	=11	=11	=11	=11	=11	=11
!LO:TX:a:t=P:problem:mixed beam	!	!	!	!LO:DY:t=pia	!	!	!	!	!	!	!	!	!	!	!	!LO:SIC:o:s:=:v:powinny być 2 ósemki ff-ee
8A\L	.	.	8e/L	p	8g/L	.	8A\	no-	8e\	no-	8cc#\	no-	8gg\	no-	8e\L	4g\
!	!	!	!	!	!	!	!	!	!	!	!LO:SIC:s:=:v:8dd	!	!	!	!	!
8D/J	.	.	8d/J	.	8f#/J	.	8D\	-bis	8d\	-bis	8cc#\	-bis	8ff#\	-bis	8d\J	.
4r	.	.	16f#/LL	.	16a\LL	.	4r	.	4r	.	4r	.	4r	.	4r	4f#\
.	.	.	16a/	.	[16ff#\	p	.	.	.	.	.	.	.	.	.	.
.	.	.	16a/	.	16ff#\]	.	.	.	.	.	.	.	.	.	.	.
.	.	.	16f#/JJ	.	16a\JJ	.	.	.	.	.	.	.	.	.	.	.
*tremolo	*	*	*	*	*	*	*	*	*	*	*	*	*	*	*	*
8AA/L	7_	p	16e/LL	.	(16g/LL	.	2r	.	2r	.	2r	.	2r	.	2r	4r
.	.	.	16d/J	.	16f#/J)	.	.	.	.	.	.	.	.	.	.	.
8AA/	.	.	8e/J	.	8g/J	.	.	.	.	.	.	.	.	.	.	.
8AA/	.	.	16e/LL	.	16g/LL	.	.	.	.	.	.	.	.	.	.	4r
.	.	.	16g/	.	[16ee/	.	.	.	.	.	.	.	.	.	.	.
8AA/J	.	.	16g/	.	16ee/]	.	.	.	.	.	.	.	.	.	.	.
.	x	.	16e/JJ	.	16g/JJ	.	.	.	.	.	.	.	.	.	.	.
*Xtremolo	*	*	*	*	*	*	*	*	*	*	*	*	*	*	*	*
=12	=12	=12	=12	=12	=12	=12	=12	=12	=12	=12	=12	=12	=12	=12	=12	=12
!	!	!	!	!	!	!	!LO:SIC:o:s:=:v:brak taktu	!	!	!	!LO:SIC:o:s:=:v:brak taktu	!	!LO:TX:a:t=1	!	!	!LO:TX:a:t=1
.	.	.	.	.	8qqg/	.	.	.	.	.	.	.	.	.	.	.
4D\	.	.	4ff#/ 4a/ 4d/	.	4f#/	.	1ryy	.	1r	.	1ryy	.	1r	.	1r	1r
4r	.	.	4r	.	4r	.	.	.	.	.	.	.	.	.	.	.
2r	.	.	2r	.	2r	.	.	.	.	.	.	.	.	.	.	.
!LO:TX:b:t=Dona ut Kyrie	!	!	!LO:TX:b:t=Dona nobis ut Kyrye	!	!LO:TX:b:t=Dona ut Kyrie	!	!LO:TX:b:t=Dona Nobsi Ut Kyrie	!	!LO:TX:b:t=Dona ut Kyrie z początku	!	!LO:TX:b:t=Dona ut Kyrie	!	!LO:TX:b:t=Dona ut Kyrie z początku	!	!LO:TX:b:t=Dona ut Kyrie	!LO:TX:b:t=Dona nobis ut Kyrie
==	==	==	==	==	==	==	==	==	==	==	==	==	==	==	==	==
*-	*-	*-	*-	*-	*-	*-	*-	*-	*-	*-	*-	*-	*-	*-	*-	*-
!!!system-decoration: [(s1,s2)][(s3,s4,s5,s6)][(s7,s8)]s9
!!!RDF**kern: > = above
!!!RDF**kern: < = below
!!!RDF**dynam: p = piano.
!!!RDF**dynam: f = for.
!!!EED: Leszek Kubiak
!!!EST: 2020-12-07
!!!ENC: Andrzej Borzym
!!!END: 2020-05-30
